lib/radiotmp/nrk-list.svg

<svg xmlns="http://www.w3.org/2000/svg" viewBox="0 0 24 24"><path fill="#000" d="M2 5h20v2H2V5ZM2 11h20v2H2v-2ZM22 17H2v2h20v-2Z"/></svg>

<svg width="24" height="24" viewBox="0 0 24 24" fill="none" xmlns="http://www.w3.org/2000/svg">
<path d="M2 5H22V7H2V5Z" fill="black"/>
<path d="M2 11H22V13H2V11Z" fill="black"/>
<path d="M22 17H2V19H22V17Z" fill="black"/>
</svg>
